X: 19
T: Missa O venus bant &mdash; Agnus Dei
C: Gaspar van Weerbeke
%%abc-version 2.0
%%abcx-abcm2ps-target-version 5.9.1 (29 Sep 2008)
%%abc-creator hum2abc beta
%%abcx-conversion-date 2022/03/06 13:05:59
%%abc-copyright Copyright 2014, Pavanello, Agnese
%%abc-edited-by Mair-Gruber, Roland
%%humdrum-veritas 2989179991
%%humdrum-veritas-data 4047083322
%%linebreak <none>
%%barnumbers 0
L: 1/4
M: 3/2
N: Derived from Gas0102e-Missa_O_venus_bant-Agnus.krn
%%staves [1 2 3 4]
V: 1 clef=treble
V: 2 clef=treble-8
V: 3 clef=treble-8
V: 4 clef=bass
K: C
[V:1] G4F2 | 
[V:2] G4A2 | 
[V:3] z6 | 
[V:4] z6 | 
[V:1] ED2G2^F | 
[V:2] G>ABcA2 | 
[V:3] z6 | 
[V:4] z6 | 
[V:1] G2zGA2 | 
[V:2] G>ABc2d- | 
[V:3] z6 | 
[V:4] z6 | 
[V:1] B2cA2d- | 
[V:2] de2f2d- | 
[V:3] z6 | 
[V:4] z6 | 
[V:1] dBA2G2 | 
[V:2] dg2feg- | 
[V:3] z6 | 
[V:4] z6 | 
[V:1] BA2FE2 | 
[V:2] gf2d2^c | 
[V:3] z6 | 
[V:4] z6 | 
[V:1] D>EFG2A- | 
[V:2] dGABc2 | 
[V:3] z6 | 
[V:4] z6 | 
[V:1] AB2c>BA | 
[V:2] d2e2f2 | 
[V:3] z6 | 
[V:4] z6 | 
[V:1] GA2G2^F | 
[V:2] ed2BA2 | 
[V:3] z6 | 
[V:4] z6 | 
[V:1] G4z2 | 
[V:2] G>ABcd2 | 
[V:3] G6- | 
[V:4] G,,2>A,,2B,,2 | 
[V:1] G2>A2B2 | 
[V:2] e4d2 | 
[V:3] G6 | 
[V:4] C,E,2C,B,,2 | 
[V:1] c>BAG/F/EF | 
[V:2] c2c>ded | 
[V:3] A6- | 
[V:4] A,,2A,,>B,,C,D, | 
[V:1] EFDA2G/F/ | 
[V:2] cd2c/B<AB/ | 
[V:3] A6 | 
[V:4] A,,D,2F,2F, | 
[V:1] E2zEDG- | 
[V:2] c2c2B2 | 
[V:3] G6- | 
[V:4] C,4G,,2 | 
[V:1] G/A/Bc/B/A/G<^FE/ | 
[V:2] B2A2d2 | 
[V:3] G2A4 | 
[V:4] zG,F,>E,D,2 | 
[V:1] G4z2 | 
[V:2] Bcde>dc | 
[V:3] G6 | 
[V:4] G,,C,B,,C,2E,- | 
[V:1] z6 | 
[V:2] Bd2c2B | 
[V:3] z6 | 
[V:4] E,F,G,C,D,2 | 
[V:1] E4E2 | 
[V:2] c2>B2G2 | 
[V:3] c6- | 
[V:4] C,6 | 
[V:1] F>GAG/F/EF | 
[V:2] A4z2 | 
[V:3] c6 | 
[V:4] F,4A,F, | 
[V:1] DE2D2^C | 
[V:2] z6 | 
[V:3] B3A2G | 
[V:4] G,>F,D,F,E,2 | 
[V:1] D2z2A2 | 
[V:2] f4f2 | 
[V:3] A6 | 
[V:4] D,4F,2 | 
[V:1] GECG2G- | 
[V:2] e2e>dc3/B/ | 
[V:3] c6 | 
[V:4] C,6- | 
[V:1] G/F/E/D/Cc2B/A/ | 
[V:2] G>FGA>EF | 
[V:3] c6 | 
[V:4] C,4A,,2 | 
[V:1] B>cdG>AB | 
[V:2] G>FDEDG- | 
[V:3] z6 | 
[V:4] G,,6 | 
[V:1] GD2C/B,/A,2 | 
[V:2] G/A/B2A/G/^F2 | 
[V:3] z6 | 
[V:4] z2<G,,2D,2 | 
[V:1] G,D2GFA- | 
[V:2] G2zGD3/E/ | 
[V:3] G4d2- | 
[V:4] G,,4z2 | 
[V:1] AB>cd2G | 
[V:2] FG>ABGd- | 
[V:3] d2B4 | 
[V:4] z2G,4 | 
[V:1] FA>G^F/E/F2 | 
[V:2] dd2c/B/Ad | 
[V:3] A6 | 
[V:4] D,6 | 
[V:1] G2zB2A/G/ | 
[V:2] B>cdGd2 | 
[V:3] G6 | 
[V:4] G,,4G,2 | 
[V:1] A2Gc2B | 
[V:2] zfefg2 | 
[V:3] d2ecd2 | 
[V:4] F,2G,A,G,2 | 
[V:1] c2zcA3/B/ | 
[V:2] e2cf2e/d/ | 
[V:3] c4c2 | 
[V:4] A,2>F,2F,2 | 
[V:1] cB/A<GA/ B/c/d- | 
[V:2] c>de2d2 | 
[V:3] A2c2G2 | 
[V:4] F,2E,C,B,,2 | 
[V:1] dB2A2^G | 
[V:2] BGA2z2 | 
[V:3] d2cAB2 | 
[V:4] B,,2C,2D,E, | 
[V:1] Ac>BA>GF/E/ | 
[V:2] c>de2f2- | 
[V:3] A2c2Ad- | 
[V:4] A,,2zA,,D,3/E,/ | 
[V:1] DA2G2^F | 
[V:2] f2ded2- | 
[V:3] d2BcA2 | 
[V:4] F,2G,C,D,2 | 
[V:1] G6 ||  
[V:2] d6 ||  
[V:3] G6 ||  
[V:4] G,,6 ||  
[V:1] [M:2/2]G>FDE | 
[V:2] [M:2/2]G4 | 
[V:3] [M:2/2]z4 | 
[V:4] [M:2/2]z4 | 
[V:1] DF>ED- | 
[V:2] F4 | 
[V:3] z4 | 
[V:4] z4 | 
[V:1] DCD3/C/ | 
[V:2] E2D2- | 
[V:3] z4 | 
[V:4] z4 | 
[V:1] A,DB,E- | 
[V:2] D2G2- | 
[V:3] z4 | 
[V:4] z4 | 
[V:1] E/D/C/B,/A,2 | 
[V:2] G2^F2 | 
[V:3] z4 | 
[V:4] z4 | 
[V:1] G,4 | 
[V:2] G4 | 
[V:3] z4 | 
[V:4] G,,3G,- | 
[V:1] z4 | 
[V:2] z2G2 | 
[V:3] z4 | 
[V:4] G,B,2A,/G,/ | 
[V:1] z4 | 
[V:2] A3A | 
[V:3] z4 | 
[V:4] F,2F,/G,/A, | 
[V:1] z4 | 
[V:2] A3G | 
[V:3] z4 | 
[V:4] D,F,2E,/D,/ | 
[V:1] z4 | 
[V:2] c3B | 
[V:3] z4 | 
[V:4] C,F,>G,A,/B,/ | 
[V:1] z4 | 
[V:2] A3B/c/ | 
[V:3] z4 | 
[V:4] CF,2E, | 
[V:1] z4 | 
[V:2] d3c | 
[V:3] z4 | 
[V:4] D,G,2G,,- | 
[V:1] z4 | 
[V:2] B2A2- | 
[V:3] z4 | 
[V:4] G,,/A,,/B,,/C,<D,E,/ | 
[V:1] z4 | 
[V:2] AGG2- | 
[V:3] z4 | 
[V:4] F,2G,G,, | 
[V:1] z4 | 
[V:2] G2^F2 | 
[V:3] z4 | 
[V:4] B,,C,A,,2 | 
[V:1] z2G3/F/ | 
[V:2] G3A | 
[V:3] z4 | 
[V:4] G,,4 | 
[V:1] GA>E^F | 
[V:2] BcA2 | 
[V:3] z4 | 
[V:4] z4 | 
[V:1] GB2c | 
[V:2] G2zA- | 
[V:3] z4 | 
[V:4] z4 | 
[V:1] A2G2 | 
[V:2] AcBG | 
[V:3] z4 | 
[V:4] F,2G,E, | 
[V:1] zA2c | 
[V:2] F2F2 | 
[V:3] z4 | 
[V:4] D,C,/B,,/A,,2 | 
[V:1] BGF2 | 
[V:2] G2A2 | 
[V:3] z4 | 
[V:4] G,,2z2 | 
[V:1] G2A3/G/ | 
[V:2] Bc2d- | 
[V:3] z4 | 
[V:4] G,C,F,3/E,/ | 
[V:1] F/E/DEA- | 
[V:2] d/e/fed- | 
[V:3] z4 | 
[V:4] D,2C,D, | 
[V:1] AG2^F | 
[V:2] dc/B/A2 | 
[V:3] z4 | 
[V:4] B,,G,,D,2 | 
[V:1] G2EC | 
[V:2] G2z2 | 
[V:3] z4 | 
[V:4] zG,,A,,2 | 
[V:1] D2C2 | 
[V:2] zGA2 | 
[V:3] z4 | 
[V:4] B,,2C,3/B,,/ | 
[V:1] zGA2 | 
[V:2] B2c3/B/ | 
[V:3] z4 | 
[V:4] G,,2z2 | 
[V:1] B2c3/B/ | 
[V:2] G2zc- | 
[V:3] z4 | 
[V:4] z4 | 
[V:1] G2zc- | 
[V:2] cBA3/B/ | 
[V:3] z4 | 
[V:4] z4 | 
[V:1] cBA3/B/ | 
[V:2] cd>cA- | 
[V:3] z4 | 
[V:4] z4 | 
[V:1] cd>cB/A/ | 
[V:2] ABG2 | 
[V:3] z4 | 
[V:4] z4 | 
[V:1] G2FG- | 
[V:2] c2de- | 
[V:3] z4 | 
[V:4] C,2F,E, | 
[V:1] GF/E/D2 | 
[V:2] ec2B | 
[V:3] z4 | 
[V:4] C,2G,2 | 
[V:1] C2z2 | 
[V:2] c2zd- | 
[V:3] z4 | 
[V:4] A,2F,2 | 
[V:1] z4 | 
[V:2] dB2c- | 
[V:3] z4 | 
[V:4] G,2E,2 | 
[V:1] z4 | 
[V:2] cd2c/B/ | 
[V:3] z4 | 
[V:4] F,2D,3/E,/ | 
[V:1] z2C2 | 
[V:2] AGA2 | 
[V:3] z4 | 
[V:4] F,G,2^F, | 
[V:1] B,>CDE | 
[V:2] G4 | 
[V:3] z4 | 
[V:4] G,2zG, | 
[V:1] DF2E/D/ | 
[V:2] A2A_B- | 
[V:3] z4 | 
[V:4] F,D,2G,- | 
[V:1] E/D/C/B,/C2 | 
[V:2] B/A/G/F/G2 | 
[V:3] z4 | 
[V:4] G,/F,/E,/D,/E,2 | 
[V:1] D2z2 | 
[V:2] A3c- | 
[V:3] z4 | 
[V:4] D,2C,A,,- | 
[V:1] z4 | 
[V:2] c/B<GA/B- | 
[V:3] z4 | 
[V:4] A,,C,>B,,G,,- | 
[V:1] z4 | 
[V:2] B/A<FG/A- | 
[V:3] z4 | 
[V:4] G,,D,A,,C,- | 
[V:1] z4 | 
[V:2] AG2^F | 
[V:3] z4 | 
[V:4] C,B,,A,,2 | 
[V:1] z4 | 
[V:2] G2z2 | 
[V:3] z4 | 
[V:4] zG,,2A,, | 
[V:1] z4 | 
[V:2] z2G2- | 
[V:3] z4 | 
[V:4] B,,2C,3/D,/ | 
[V:1] z4 | 
[V:2] GAB2 | 
[V:3] z4 | 
[V:4] E,F,D,2 | 
[V:1] G3A | 
[V:2] c>def | 
[V:3] z4 | 
[V:4] C,2z2 | 
[V:1] B2c2 | 
[V:2] d2c2 | 
[V:3] z4 | 
[V:4] G,2A,2 | 
[V:1] A2GB- | 
[V:2] f2eg- | 
[V:3] z4 | 
[V:4] F,2G,2 | 
[V:1] BcB2 | 
[V:2] g/f/edg- | 
[V:3] z4 | 
[V:4] E,C,G,2 | 
[V:1] BA2G | 
[V:2] gfec- | 
[V:3] z4 | 
[V:4] zD,E,2 | 
[V:1] Ac2B | 
[V:2] ced2 | 
[V:3] z4 | 
[V:4] F,C,G,2 | 
[V:1] c2c2 | 
[V:2] c3A | 
[V:3] z4 | 
[V:4] C,>D,E,F, | 
[V:1] z4 | 
[V:2] Bd2c/B/ | 
[V:3] z4 | 
[V:4] G,F,/E,/D,G,- | 
[V:1] c3A | 
[V:2] A2A2 | 
[V:3] z4 | 
[V:4] G,F,/E,/F,2 | 
[V:1] Bd2c/B/ | 
[V:2] G2zG | 
[V:3] z4 | 
[V:4] G,B,2A,/G,/ | 
[V:1] A2A2 | 
[V:2] Ac2A | 
[V:3] z4 | 
[V:4] F,>E,F,2 | 
[V:1] G2zG | 
[V:2] B2c2 | 
[V:3] z4 | 
[V:4] G,2C,2 | 
[V:1] Ac2B/A/ | 
[V:2] f2ec | 
[V:3] z4 | 
[V:4] z2C,2 | 
[V:1] BA2G- | 
[V:2] d2BG | 
[V:3] z4 | 
[V:4] G,F,G,E, | 
[V:1] GFED- | 
[V:2] A2GB- | 
[V:3] z4 | 
[V:4] D,2zG,,- | 
[V:1] DB,A,2 | 
[V:2] BA/G/F2 | 
[V:3] z4 | 
[V:4] G,,/A,,/B,,/C,/D,2 | 
[V:1] G,/A,/B,/C/DE | 
[V:2] zd2B- | 
[V:3] z4 | 
[V:4] E,G,F,G,- | 
[V:1] DG2^F | 
[V:2] BA/G/A2 | 
[V:3] z4 | 
[V:4] G,F,/E,/D,2 | 
[V:1] GBAB- | 
[V:2] G2AG- | 
[V:3] z4 | 
[V:4] zG,F,G,- | 
[V:1] BA/G/^F2 | 
[V:2] G/A/B/c/d2 | 
[V:3] z4 | 
[V:4] G,F,/E,/D,2 | 
[V:1] G4- | 
[V:2] ze2d/c/ | 
[V:3] z4 | 
[V:4] E,C,>D,E,/F,/ | 
[V:1] G4- | 
[V:2] Bc2B/A/ | 
[V:3] z4 | 
[V:4] G,E,2D,/C,/ | 
[V:1] G4- | 
[V:2] G4- | 
[V:3] z4 | 
[V:4] B,,C,2B,,/A,,/ | 
[V:1] G4 ||  
[V:2] G4 ||  
[V:3] z4 ||  
[V:4] G,,4 ||  
[V:1] [K:clef=treble][M:2/2]z4 | 
[V:2] [K:clef=treble-8][M:2/2]d2BG | 
[V:3] [K:clef=bass][M:2/2]G,,4 | 
[V:4] [K:clef=treble-8][M:2/2]G3E | 
[V:1] z4 | 
[V:2] c3A | 
[V:3] A,,2A,,2 | 
[V:4] FE2D/C/ | 
[V:1] z4 | 
[V:2] B2GG- | 
[V:3] G,,4 | 
[V:4] B,>CDE- | 
[V:1] z4 | 
[V:2] G/A/B/c<dc/ | 
[V:3] z2G,,2 | 
[V:4] E/D<GA/B | 
[V:1] z4 | 
[V:2] A>BcA | 
[V:3] A,,2A,,2 | 
[V:4] c/B/A/G<FE/ | 
[V:1] G,/A,/B,/C/DE | 
[V:2] B2G2 | 
[V:3] G,,4 | 
[V:4] G3F/E/ | 
[V:1] F/E/D/C<B,A,/ | 
[V:2] d4 | 
[V:3] z2G,,2 | 
[V:4] D2D2 | 
[V:1] C3E- | 
[V:2] z4 | 
[V:3] C,3C, | 
[V:4] CE>FG- | 
[V:1] E/F<GF/G | 
[V:2] z4 | 
[V:3] C,3B,, | 
[V:4] G/F/E/D/CG | 
[V:1] A>Bcd | 
[V:2] z4 | 
[V:3] A,,3G,, | 
[V:4] FA2B | 
[V:1] Ac2B/A/ | 
[V:2] z2e2 | 
[V:3] A,,2A,,2 | 
[V:4] cA2G/F/ | 
[V:1] G2z2 | 
[V:2] ee2d/c/ | 
[V:3] C,2C,2 | 
[V:4] E2z2 | 
[V:1] z4 | 
[V:2] Bd>cB- | 
[V:3] G,,2G,,2 | 
[V:4] z4 | 
[V:1] z4 | 
[V:2] BA/G/FA | 
[V:3] D,4 | 
[V:4] z4 | 
[V:1] z4 | 
[V:2] Bd>cB/A/ | 
[V:3] B,,2G,,2 | 
[V:4] z4 | 
[V:1] z4 | 
[V:2] c/B/A/G/F2 | 
[V:3] A,,4 | 
[V:4] C2C2 | 
[V:1] z2DE | 
[V:2] G2z2 | 
[V:3] G,,4- | 
[V:4] DEDG- | 
[V:1] DG>AB- | 
[V:2] z4 | 
[V:3] G,,4 | 
[V:4] G/A/B2G- | 
[V:1] BG>FA- | 
[V:2] z4 | 
[V:3] z2G,,2 | 
[V:4] GB2A/G/ | 
[V:1] A/G/F/E/^F2 | 
[V:2] d>cAd | 
[V:3] D,2D,2 | 
[V:4] F>GA2 | 
[V:1] G2CG | 
[V:2] Be>fg/e/ | 
[V:3] E,3E, | 
[V:4] G2z2 | 
[V:1] FAB/A/G/F/ | 
[V:2] f/>e/d/c<BA/ | 
[V:3] D,2D,2 | 
[V:4] z4 | 
[V:1] E2z2 | 
[V:2] c>dec- | 
[V:3] C,4 | 
[V:4] G>FGA- | 
[V:1] z4 | 
[V:2] cB/A/G2 | 
[V:3] z2C,2 | 
[V:4] AG/F/E2 | 
[V:1] G2G/F/E/D/ | 
[V:2] z4 | 
[V:3] C,2C,2 | 
[V:4] CE>FG | 
[V:1] C>DEF | 
[V:2] z4 | 
[V:3] A,,2A,,2 | 
[V:4] A>Bc3/B/ | 
[V:1] EGAc | 
[V:2] c4 | 
[V:3] C,2C,2 | 
[V:4] G2z2 | 
[V:1] B3G | 
[V:2] dedg | 
[V:3] G,,2G,,2 | 
[V:4] G>A B/c/d- | 
[V:1] ABc2 | 
[V:2] fde2 | 
[V:3] D,2C,2 | 
[V:4] d/c/BAc | 
[V:1] zd2B | 
[V:2] d2zg | 
[V:3] B,,4 | 
[V:4] d/c/B/A<GF/ | 
[V:1] cA2G/F/ | 
[V:2] cf2e/d/ | 
[V:3] A,,4- | 
[V:4] A2zA- | 
[V:1] E3A- | 
[V:2] c>deA | 
[V:3] A,,4 | 
[V:4] AG/F/EF | 
[V:1] A^GA2 | 
[V:2] B2Ac- | 
[V:3] z2A,,2 | 
[V:4] E2z2 | 
[V:1] G>F E/D/C- | 
[V:2] c/d/eAe- | 
[V:3] C,2C,2 | 
[V:4] z4 | 
[V:1] CDE2 | 
[V:2] e/d/c/B<cB/ | 
[V:3] A,,2A,,2 | 
[V:4] z4 | 
[V:1] F>GAD- | 
[V:2] d>cAB- | 
[V:3] D,4 | 
[V:4] z4 | 
[V:1] DG>FE/D/ | 
[V:2] BG>AB | 
[V:3] B,,2G,,2 | 
[V:4] z4 | 
[V:1] C2zc | 
[V:2] c/B/A/G/F2 | 
[V:3] A,,4 | 
[V:4] A4 | 
[V:1] Bd>cB | 
[V:2] G>A B/c/d- | 
[V:3] G,,4 | 
[V:4] B2G2 | 
[V:1] A2B2 | 
[V:2] d/e/fg2 | 
[V:3] z4 | 
[V:4] FAG2 | 
[V:1] A>BAc- | 
[V:2] d3e- | 
[V:3] z4 | 
[V:4] FG2C- | 
[V:1] c/B/A/G<^FE/ | 
[V:2] e/d/c/B/A2 | 
[V:3] z4 | 
[V:4] CGD2 | 
[V:1] G4 |]  
[V:2] [G4d4] |]  
[V:3] G,,4 |]  
[V:4] [D4G4] |]  


